snap/Costumes/bear2-a.svg

<?xml version="1.0" encoding="UTF-8" standalone="no"?>
<svg
   xmlns:dc="http://purl.org/dc/elements/1.1/"
   xmlns:cc="http://creativecommons.org/ns#"
   xmlns:rdf="http://www.w3.org/1999/02/22-rdf-syntax-ns#"
   xmlns:svg="http://www.w3.org/2000/svg"
   xmlns="http://www.w3.org/2000/svg"
   xmlns:sodipodi="http://sodipodi.sourceforge.net/DTD/sodipodi-0.dtd"
   xmlns:inkscape="http://www.inkscape.org/namespaces/inkscape"
   version="1.1"
   width="100.24181"
   height="128.2023"
   viewBox="0 30 100.24181 128.2023"
   id="svg423"
   sodipodi:docname="bear2-a.svg"
   inkscape:version="0.92.2 5c3e80d, 2017-08-06">
  <metadata
     id="metadata429">
    <rdf:RDF>
      <cc:Work
         rdf:about="">
        <dc:format>image/svg+xml</dc:format>
        <dc:type
           rdf:resource="http://purl.org/dc/dcmitype/StillImage" />
        <dc:title></dc:title>
      </cc:Work>
    </rdf:RDF>
  </metadata>
  <defs
     id="defs427" />
  <sodipodi:namedview
     pagecolor="#ffffff"
     bordercolor="#666666"
     borderopacity="1"
     objecttolerance="10"
     gridtolerance="10"
     guidetolerance="10"
     inkscape:pageopacity="0"
     inkscape:pageshadow="2"
     inkscape:window-width="640"
     inkscape:window-height="480"
     id="namedview425"
     showgrid="false"
     fit-margin-top="0"
     fit-margin-left="0"
     fit-margin-right="0"
     fit-margin-bottom="0"
     inkscape:zoom="2"
     inkscape:cx="88.085134"
     inkscape:cy="67.657332"
     inkscape:window-x="-4"
     inkscape:window-y="-4"
     inkscape:window-maximized="0"
     inkscape:current-layer="svg423" />
  <!-- Exported by Scratch - http://scratch.mit.edu/ -->
  <g
     id="ID0.07796375080943108"
     transform="translate(-191.36316,-108.74371)">
    <g
       id="ID0.8644139319658279"
       transform="translate(203,138)">
      <path
         id="ID0.7984175607562065"
         d="m 118.425,158.403 c -0.062,-0.031 -0.139,-0.055 -0.205,-0.085 v -23.662 c 0,-1.841 -1.49,-3.332 -3.332,-3.332 h -2.873 c -1.84,0 -3.332,1.491 -3.332,3.332 v 23.662 c -0.064,0.03 -0.143,0.054 -0.205,0.085 -1.273,0.642 -2.062,1.526 -2.062,2.503 0,0.977 0.789,1.861 2.062,2.502 1.273,0.642 3.033,1.038 4.975,1.038 1.939,0 3.699,-0.396 4.973,-1.038 1.273,-0.641 2.062,-1.525 2.062,-2.502 0,-0.977 -0.79,-1.861 -2.063,-2.503 z"
         transform="translate(-64,-36)"
         inkscape:connector-curvature="0"
         style="fill:#ffffff;stroke:#000000" />
      <path
         id="ID0.8497372050769627"
         d="m 113.622,161.858 v 2.588"
         transform="translate(-64,-36)"
         inkscape:connector-curvature="0"
         style="fill:none;stroke:#000000" />
      <path
         id="ID0.3620994249358773"
         d="m 110.618,161.858 v 2.588"
         transform="translate(-64,-36)"
         inkscape:connector-curvature="0"
         style="fill:none;stroke:#000000" />
      <path
         id="ID0.867326713167131"
         d="m 116.286,161.858 v 2.588"
         transform="translate(-64,-36)"
         inkscape:connector-curvature="0"
         style="fill:none;stroke:#000000" />
    </g>
    <g
       id="ID0.48862249683588743"
       transform="translate(203,138)">
      <path
         id="ID0.9123226939700544"
         d="m 93.097,158.403 c -0.062,-0.031 -0.14,-0.055 -0.205,-0.085 v -23.662 c 0,-1.841 -1.492,-3.332 -3.332,-3.332 h -2.874 c -1.84,0 -3.332,1.491 -3.332,3.332 v 23.662 c -0.065,0.03 -0.142,0.054 -0.205,0.085 -1.274,0.642 -2.062,1.526 -2.062,2.503 0,0.977 0.788,1.861 2.062,2.502 1.274,0.642 3.033,1.038 4.974,1.038 1.941,0 3.7,-0.396 4.974,-1.038 1.274,-0.641 2.062,-1.525 2.062,-2.502 0,-0.977 -0.788,-1.861 -2.062,-2.503 z"
         transform="translate(-64,-36)"
         inkscape:connector-curvature="0"
         style="fill:#ffffff;stroke:#000000" />
      <path
         id="ID0.2195250359363854"
         d="m 88.123,161.858 v 2.588"
         transform="translate(-64,-36)"
         inkscape:connector-curvature="0"
         style="fill:none;stroke:#000000" />
      <path
         id="ID0.7100099800154567"
         d="m 85.12,161.858 v 2.588"
         transform="translate(-64,-36)"
         inkscape:connector-curvature="0"
         style="fill:none;stroke:#000000" />
      <path
         id="ID0.25268550775945187"
         d="m 90.787,161.858 v 2.588"
         transform="translate(-64,-36)"
         inkscape:connector-curvature="0"
         style="fill:none;stroke:#000000" />
    </g>
    <g
       id="ID0.8780540516600013"
       transform="translate(203,138)">
      <path
         id="ID0.3386278133839369"
         d="m 74.915,125.335 c 0.471,1.946 -0.401,3.98 -2.146,4.568 -0.737,0.248 -1.104,0.371 -1.842,0.619 -1.744,0.588 -3.811,-0.817 -4.379,-3.166 -3.676,-18.042 1.231,-34.846 14.043,-48.071 1.743,-1.673 4.241,-1.745 5.396,-0.311 0.487,0.606 0.731,0.908 1.219,1.514 1.153,1.434 0.793,3.618 -0.651,5.005 -10.62,11.129 -14.601,24.747 -11.64,39.842 z"
         transform="translate(-64,-36)"
         inkscape:connector-curvature="0"
         style="fill:#ffffff;stroke:#010101" />
    </g>
    <g
       id="ID0.878742640838027"
       transform="translate(203,138)">
      <path
         id="ID0.49854832142591476"
         d="m 126.427,125.335 c -0.471,1.946 0.4,3.98 2.145,4.568 0.736,0.248 1.105,0.371 1.842,0.619 1.744,0.588 3.811,-0.817 4.379,-3.166 3.68,-18.043 -1.232,-34.844 -14.041,-48.071 -1.744,-1.673 -4.242,-1.745 -5.396,-0.311 -0.486,0.606 -0.73,0.908 -1.219,1.514 -1.152,1.434 -0.793,3.618 0.652,5.005 10.62,11.131 14.593,24.745 11.638,39.842 z"
         transform="translate(-64,-36)"
         inkscape:connector-curvature="0"
         style="fill:#ffffff;stroke:#010101" />
    </g>
    <path
       id="ID0.6784169343300164"
       d="m 100.782,70.66 c 8.338,0 15.895,4.327 21.367,11.316 5.471,6.991 8.857,16.644 8.857,27.297 0,10.653 -3.387,20.307 -8.857,27.296 -5.473,6.99 -13.029,11.316 -21.367,11.316 -8.339,0 -15.896,-4.326 -21.368,-11.316 -5.471,-6.989 -8.858,-16.643 -8.858,-27.296 0,-10.653 3.387,-20.306 8.858,-27.297 5.472,-6.989 13.029,-11.316 21.368,-11.316 z"
       transform="translate(139,102)"
       inkscape:connector-curvature="0"
       style="fill:#ffffff;stroke:#000000" />
    <path
       id="ID0.39708823431283236"
       d="m 113.292,58.588 c 0.045,-0.596 0.07,-1.2 0.07,-1.812 0,-4.473 -1.227,-8.55 -3.242,-11.627 0.92,-0.222 1.875,-0.748 2.693,-1.555 1.828,-1.802 2.277,-4.309 1.004,-5.6 -1.271,-1.291 -3.785,-0.876 -5.611,0.926 -0.771,0.76 -1.293,1.645 -1.549,2.511 -1.754,-1.281 -3.754,-2.01 -5.877,-2.01 -2.225,0 -4.314,0.8 -6.128,2.199 -0.231,-0.926 -0.772,-1.885 -1.599,-2.7 -1.827,-1.803 -4.34,-2.217 -5.613,-0.926 -1.272,1.291 -0.823,3.797 1.004,5.599 0.897,0.885 1.961,1.434 2.96,1.611 -1.993,3.071 -3.207,7.125 -3.207,11.57 0,0.612 0.024,1.216 0.069,1.812 -2.599,2.143 -4.19,4.948 -4.19,8.026 0,3.353 1.871,6.391 4.896,8.59 3.023,2.2 7.2,3.561 11.809,3.561 4.607,0 8.783,-1.361 11.807,-3.561 3.023,-2.199 4.896,-5.238 4.896,-8.59 -10e-4,-3.077 -1.592,-5.882 -4.192,-8.024 z"
       transform="translate(139,102)"
       inkscape:connector-curvature="0"
       style="fill:#ffffff;stroke:#000000" />
    <path
       id="ID0.12470964528620243"
       d="m 100.78,64.567 c -6.99,0 -12.657,4.282 -12.657,9.564 0,0.139 0.006,0.276 0.014,0.413 3.063,2.58 7.59,4.215 12.644,4.215 5.055,0 9.582,-1.635 12.645,-4.215 0.008,-0.137 0.014,-0.274 0.014,-0.413 -0.002,-5.282 -5.668,-9.564 -12.66,-9.564 z"
       transform="translate(139,102)"
       inkscape:connector-curvature="0"
       style="fill:#ffffff" />
    <path
       id="ID0.1214322866871953"
       d="m 95.159,48.967 c 0.438,0 0.836,0.194 1.124,0.509 0.288,0.314 0.466,0.748 0.466,1.227 0,0.478 -0.178,0.913 -0.466,1.226 -0.288,0.315 -0.686,0.509 -1.124,0.509 -0.439,0 -0.837,-0.194 -1.125,-0.509 -0.288,-0.314 -0.466,-0.748 -0.466,-1.226 0,-0.479 0.178,-0.913 0.466,-1.227 0.288,-0.315 0.686,-0.509 1.125,-0.509 z"
       transform="translate(139,102.5)"
       inkscape:connector-curvature="0"
       style="fill:#010101" />
    <path
       id="ID0.11229029856622219"
       d="m 106.565,48.967 c 0.439,0 0.838,0.194 1.125,0.509 0.289,0.314 0.467,0.748 0.467,1.227 0,0.478 -0.178,0.913 -0.467,1.226 -0.287,0.315 -0.686,0.509 -1.125,0.509 -0.438,0 -0.836,-0.194 -1.123,-0.509 -0.289,-0.314 -0.467,-0.748 -0.467,-1.226 0,-0.479 0.178,-0.913 0.467,-1.227 0.287,-0.315 0.686,-0.509 1.123,-0.509 z"
       transform="translate(139,102.5)"
       inkscape:connector-curvature="0"
       style="fill:#010101" />
    <path
       id="ID0.37403157306835055"
       d="m 100.784,58.004 c 1.803,0 3.438,0.541 4.623,1.414 1.186,0.874 1.916,2.08 1.916,3.411 0,1.331 -0.73,2.537 -1.916,3.411 -1.186,0.874 -2.82,1.414 -4.623,1.414 -1.807,0 -3.442,-0.541 -4.627,-1.414 -1.184,-0.874 -1.917,-2.08 -1.917,-3.411 0,-1.331 0.733,-2.537 1.917,-3.411 1.185,-0.874 2.82,-1.414 4.627,-1.414 z"
       transform="translate(139,102)"
       inkscape:connector-curvature="0"
       style="fill:#231f20" />
    <g
       id="ID0.5584445288404822"
       transform="translate(203,138)">
      <g
         id="ID0.8886712263338268">
        <path
           id="ID0.8919794107787311"
           d="m 100.23,66.772 c 0.02,1.651 0.391,3.576 -0.46,5.08 -1.147,2.028 -4.44,0.462 -5.274,-0.999 -0.319,-0.56 -1.184,-0.056 -0.863,0.505 1.055,1.847 3.884,3.123 5.887,2.011 2.311,-1.283 1.736,-4.401 1.711,-6.597 -0.008,-0.644 -1.008,-0.645 -1.001,0 z"
           transform="translate(-64,-36)"
           inkscape:connector-curvature="0" />
      </g>
    </g>
    <g
       id="ID0.15639787213876843"
       transform="translate(203,138)">
      <g
         id="ID0.06082212971523404">
        <path
           id="ID0.41604100773110986"
           d="m 100.635,66.554 c -0.026,2.196 -0.6,5.313 1.711,6.597 2.003,1.112 4.832,-0.164 5.887,-2.011 0.32,-0.561 -0.544,-1.064 -0.863,-0.505 -0.932,1.632 -3.931,2.834 -5.274,0.999 -0.958,-1.308 -0.479,-3.572 -0.46,-5.08 0.006,-0.645 -0.994,-0.644 -1.001,0 z"
           transform="translate(-64,-36)"
           inkscape:connector-curvature="0" />
      </g>
    </g>
  </g>
</svg>

<svg version="1.1" width="271" height="251" viewBox="0 30 271 251" xmlns="http://www.w3.org/2000/svg" xmlns:xlink="http://www.w3.org/1999/xlink">
  <!-- Exported by Scratch - http://scratch.mit.edu/ -->
  <g id="ID0.07796375080943108" transform="matrix(1, 0, 0, 1, -203, -138)">
    <g id="ID0.8644139319658279" transform="matrix(1, 0, 0, 1, 203, 138)">
      <path id="ID0.7984175607562065" fill="#FFFFFF" stroke="#000000" d="M 118.425 158.403 C 118.363 158.372 118.286 158.348 118.220 158.318 L 118.220 134.656 C 118.220 132.815 116.730 131.324 114.888 131.324 L 112.015 131.324 C 110.175 131.324 108.683 132.815 108.683 134.656 L 108.683 158.318 C 108.619 158.348 108.540 158.372 108.478 158.403 C 107.205 159.045 106.416 159.929 106.416 160.906 C 106.416 161.883 107.205 162.767 108.478 163.408 C 109.751 164.050 111.511 164.446 113.453 164.446 C 115.392 164.446 117.152 164.050 118.426 163.408 C 119.699 162.767 120.488 161.883 120.488 160.906 C 120.488 159.929 119.698 159.045 118.425 158.403 Z " transform="matrix(1, 0, 0, 1, -64, -36)"/>
      <path id="ID0.8497372050769627" fill="none" stroke="#000000" d="M 113.622 161.858 L 113.622 164.446 " transform="matrix(1, 0, 0, 1, -64, -36)"/>
      <path id="ID0.3620994249358773" fill="none" stroke="#000000" d="M 110.618 161.858 L 110.618 164.446 " transform="matrix(1, 0, 0, 1, -64, -36)"/>
      <path id="ID0.867326713167131" fill="none" stroke="#000000" d="M 116.286 161.858 L 116.286 164.446 " transform="matrix(1, 0, 0, 1, -64, -36)"/>
    </g>
    <g id="ID0.48862249683588743" transform="matrix(1, 0, 0, 1, 203, 138)">
      <path id="ID0.9123226939700544" fill="#FFFFFF" stroke="#000000" d="M 93.097 158.403 C 93.035 158.372 92.957 158.348 92.892 158.318 L 92.892 134.656 C 92.892 132.815 91.400 131.324 89.560 131.324 L 86.686 131.324 C 84.846 131.324 83.354 132.815 83.354 134.656 L 83.354 158.318 C 83.289 158.348 83.212 158.372 83.149 158.403 C 81.875 159.045 81.087 159.929 81.087 160.906 C 81.087 161.883 81.875 162.767 83.149 163.408 C 84.423 164.050 86.182 164.446 88.123 164.446 C 90.064 164.446 91.823 164.050 93.097 163.408 C 94.371 162.767 95.159 161.883 95.159 160.906 C 95.159 159.929 94.371 159.045 93.097 158.403 Z " transform="matrix(1, 0, 0, 1, -64, -36)"/>
      <path id="ID0.2195250359363854" fill="none" stroke="#000000" d="M 88.123 161.858 L 88.123 164.446 " transform="matrix(1, 0, 0, 1, -64, -36)"/>
      <path id="ID0.7100099800154567" fill="none" stroke="#000000" d="M 85.120 161.858 L 85.120 164.446 " transform="matrix(1, 0, 0, 1, -64, -36)"/>
      <path id="ID0.25268550775945187" fill="none" stroke="#000000" d="M 90.787 161.858 L 90.787 164.446 " transform="matrix(1, 0, 0, 1, -64, -36)"/>
    </g>
    <g id="ID0.8780540516600013" transform="matrix(1, 0, 0, 1, 203, 138)">
      <path id="ID0.3386278133839369" fill="#FFFFFF" stroke="#010101" d="M 74.915 125.335 C 75.386 127.281 74.514 129.315 72.769 129.903 C 72.032 130.151 71.665 130.274 70.927 130.522 C 69.183 131.110 67.116 129.705 66.548 127.356 C 62.872 109.314 67.779 92.510 80.591 79.285 C 82.334 77.612 84.832 77.540 85.987 78.974 C 86.474 79.580 86.718 79.882 87.206 80.488 C 88.359 81.922 87.999 84.106 86.555 85.493 C 75.935 96.622 71.954 110.240 74.915 125.335 Z " transform="matrix(1, 0, 0, 1, -64, -36)"/>
    </g>
    <g id="ID0.878742640838027" transform="matrix(1, 0, 0, 1, 203, 138)">
      <path id="ID0.49854832142591476" fill="#FFFFFF" stroke="#010101" d="M 126.427 125.335 C 125.956 127.281 126.827 129.315 128.572 129.903 C 129.308 130.151 129.677 130.274 130.414 130.522 C 132.158 131.110 134.225 129.705 134.793 127.356 C 138.473 109.313 133.561 92.512 120.752 79.285 C 119.008 77.612 116.510 77.540 115.356 78.974 C 114.870 79.580 114.626 79.882 114.137 80.488 C 112.985 81.922 113.344 84.106 114.789 85.493 C 125.409 96.624 129.382 110.238 126.427 125.335 Z " transform="matrix(1, 0, 0, 1, -64, -36)"/>
    </g>
    <path id="ID0.6784169343300164" fill="#FFFFFF" stroke="#000000" d="M 100.782 70.660 C 109.120 70.660 116.677 74.987 122.149 81.976 C 127.620 88.967 131.006 98.620 131.006 109.273 C 131.006 119.926 127.619 129.580 122.149 136.569 C 116.676 143.559 109.120 147.885 100.782 147.885 C 92.443 147.885 84.886 143.559 79.414 136.569 C 73.943 129.580 70.556 119.926 70.556 109.273 C 70.556 98.620 73.943 88.967 79.414 81.976 C 84.886 74.987 92.443 70.660 100.782 70.660 Z " transform="matrix(1, 0, 0, 1, 139, 102)"/>
    <path id="ID0.39708823431283236" fill="#FFFFFF" stroke="#000000" d="M 113.292 58.588 C 113.337 57.992 113.362 57.388 113.362 56.776 C 113.362 52.303 112.135 48.226 110.120 45.149 C 111.040 44.927 111.995 44.401 112.813 43.594 C 114.641 41.792 115.090 39.285 113.817 37.994 C 112.546 36.703 110.032 37.118 108.206 38.920 C 107.435 39.680 106.913 40.565 106.657 41.431 C 104.903 40.150 102.903 39.421 100.780 39.421 C 98.555 39.421 96.466 40.221 94.652 41.620 C 94.421 40.694 93.880 39.735 93.053 38.920 C 91.226 37.117 88.713 36.703 87.440 37.994 C 86.168 39.285 86.617 41.791 88.444 43.593 C 89.341 44.478 90.405 45.027 91.404 45.204 C 89.411 48.275 88.197 52.329 88.197 56.774 C 88.197 57.386 88.221 57.990 88.266 58.586 C 85.667 60.729 84.076 63.534 84.076 66.612 C 84.076 69.965 85.947 73.003 88.972 75.202 C 91.995 77.402 96.172 78.763 100.781 78.763 C 105.388 78.763 109.564 77.402 112.588 75.202 C 115.611 73.003 117.484 69.964 117.484 66.612 C 117.483 63.535 115.892 60.730 113.292 58.588 Z " transform="matrix(1, 0, 0, 1, 139, 102)"/>
    <path id="ID0.12470964528620243" fill="#FFFFFF" d="M 100.780 64.567 C 93.790 64.567 88.123 68.849 88.123 74.131 C 88.123 74.270 88.129 74.407 88.137 74.544 C 91.200 77.124 95.727 78.759 100.781 78.759 C 105.836 78.759 110.363 77.124 113.426 74.544 C 113.434 74.407 113.440 74.270 113.440 74.131 C 113.438 68.849 107.772 64.567 100.780 64.567 Z " transform="matrix(1, 0, 0, 1, 139, 102)"/>
    <path id="ID0.1214322866871953" fill="#010101" d="M 95.159 48.967 C 95.597 48.967 95.995 49.161 96.283 49.476 C 96.571 49.790 96.749 50.224 96.749 50.703 C 96.749 51.181 96.571 51.616 96.283 51.929 C 95.995 52.244 95.597 52.438 95.159 52.438 C 94.720 52.438 94.322 52.244 94.034 51.929 C 93.746 51.615 93.568 51.181 93.568 50.703 C 93.568 50.224 93.746 49.790 94.034 49.476 C 94.322 49.161 94.720 48.967 95.159 48.967 Z " transform="matrix(1, 0, 0, 1, 139, 102.5)"/>
    <path id="ID0.11229029856622219" fill="#010101" d="M 106.565 48.967 C 107.004 48.967 107.403 49.161 107.690 49.476 C 107.979 49.790 108.157 50.224 108.157 50.703 C 108.157 51.181 107.979 51.616 107.690 51.929 C 107.403 52.244 107.004 52.438 106.565 52.438 C 106.127 52.438 105.729 52.244 105.442 51.929 C 105.153 51.615 104.975 51.181 104.975 50.703 C 104.975 50.224 105.153 49.790 105.442 49.476 C 105.729 49.161 106.128 48.967 106.565 48.967 Z " transform="matrix(1, 0, 0, 1, 139, 102.5)"/>
    <path id="ID0.37403157306835055" fill="#231F20" d="M 100.784 58.004 C 102.587 58.004 104.222 58.545 105.407 59.418 C 106.593 60.292 107.323 61.498 107.323 62.829 C 107.323 64.160 106.593 65.366 105.407 66.240 C 104.221 67.114 102.587 67.654 100.784 67.654 C 98.977 67.654 97.342 67.113 96.157 66.240 C 94.973 65.366 94.240 64.160 94.240 62.829 C 94.240 61.498 94.973 60.292 96.157 59.418 C 97.342 58.544 98.977 58.004 100.784 58.004 Z " transform="matrix(1, 0, 0, 1, 139, 102)"/>
    <g id="ID0.5584445288404822" transform="matrix(1, 0, 0, 1, 203, 138)">
      <g id="ID0.8886712263338268">
        <path id="ID0.8919794107787311" d="M 100.230 66.772 C 100.250 68.423 100.621 70.348 99.770 71.852 C 98.623 73.880 95.330 72.314 94.496 70.853 C 94.177 70.293 93.312 70.797 93.633 71.358 C 94.688 73.205 97.517 74.481 99.520 73.369 C 101.831 72.086 101.256 68.968 101.231 66.772 C 101.223 66.128 100.223 66.127 100.230 66.772 L 100.230 66.772 Z " transform="matrix(1, 0, 0, 1, -64, -36)"/>
      </g>
    </g>
    <g id="ID0.15639787213876843" transform="matrix(1, 0, 0, 1, 203, 138)">
      <g id="ID0.06082212971523404">
        <path id="ID0.41604100773110986" d="M 100.635 66.554 C 100.609 68.750 100.035 71.867 102.346 73.151 C 104.349 74.263 107.178 72.987 108.233 71.140 C 108.553 70.579 107.689 70.076 107.370 70.635 C 106.438 72.267 103.439 73.469 102.096 71.634 C 101.138 70.326 101.617 68.062 101.636 66.554 C 101.642 65.909 100.642 65.910 100.635 66.554 L 100.635 66.554 Z " transform="matrix(1, 0, 0, 1, -64, -36)"/>
      </g>
    </g>
  </g>
</svg>
